X:453
T: djes Gretchen! (168), S. 366
N: T0341
O: Luxemburg
S: Singendes Volk, Esch-Alzette, 1937 posth.]
N: Rammeldingen, hhh J.P. Gloden, 26.12.1932
R: Abschieds- und Wanderlieder, Heimatlieder,  Liebeslied]
M: 2/4
L: 1/8
K: G
GG | GGFG | A2D
A | AAGA | B2
GB | ddee | dd
cc | BGAF | G2

